X:1
T:F Major Jacob French, 1802
T:Isaac Watts, 1719 (Psalm 50)   10 10. 10 10. 10 10.
T:Terror
T:Transcribed from Harmony of Harmony, 1802
%%score [ 1 2 3 4 ]
L:1/8
Q:1/4=150
M:2/2
K:F
V:1 treble nm="Treble" snm="Tr."
V:2 treble nm="Counter" snm="C."
V:3 treble-8 nm="Tenor" snm="T."
V:4 bass nm="Bass" snm="B."
V:1
 [Ac]4 c2 c2 | c8- | c4 [ce]4 | [df]2 [df]2 d2 d2 | c8- | c4 c4 | c2 A2 c2 A2 | f2 c2 d4- | d4 c4 | %9
w: |||||||||
w: |||||||||
 c6 c2 | c2 c2 c2 c2 | [Fd]2 A2 BA GF | G6 A2 | c4 A4 | B4 B4 | A2 d2 c4 | c8 | c6 z2 | z8 | %19
w: ||||||||||
w: ||||||||||
 z4 z2 c2 | f2 d2 e2 c2 | d2 z4 f2 | e4 d4 | (g2 e2 f2 d2 | c2 A2 F3 G | A>GAB c2) c2 | %26
w: Be-|hold my ter- rors|now: my|thun- ders|roll~ _ _ _|_ _ _ _|* * * * * And|
w: Lest,|like a li- on,|his last|ven- geance|tear~ _ _ _|_ _ _ _|* * * * * Your|
 c2 c2 c2 de | (f2 ge c2) c2 | c4 =B4 | c6 c2 | c2 fe d2 c2 | (c>dcB A2) d2 | c4 c4 | c8 |] %34
w: ||||||||
w: ||||||||
V:2
 F4 F2 G2 | A8- | A4 G4 | [FA]2 [FA]2 G2 F2 | E8 | z4 F4 | A2 F2 A2 F2 | A2 A2 (G4 | F4) E4 | %9
w: 1.~"Si- lent I|wai-|* ted|with long- suf- fering|love,|But|didst thou hope that|I should ne'er~|_ re-|
w: 2.~Sin- ners, a-|wake|* be-|times; ye fools, be|wise;|A-|wake be- fore this|dread- ful mor-|* ning|
 F6 F2 | E2 E2 E2 F2 | F2 F2 GF ED | E6 F2 | A4 F4 | G4 G4 | F2 F2 F4 | [EG]8 | [FA]6 z2 | z8 | %19
w: prove? And|che- rish shuch an|im- pious thought * with- *|in, That|God, the|right- eous,|would in- dulge|thy|sin?||
w: rise; Change|your vain thoughts, your|croo- ked ways * a- *|mend; Fly|to the|Sa- vior,|make the Judge|your|friend,||
 z8 | z4 z2 F2 | G2 G2 A2 F2 | G4 (3(F2 G2 A2) | G4 F4 | (G2 E2 F2 D2 | [CE]2 F2 E2) E2 | %26
w: |Be-|hold my ter- rors|now: my * *|thun- ders|roll~ _ _ _|_ _ _ And|
w: |Lest,|like a li- on,|his last * *|ven- geance|tear~ _ _ _|_ _ _ Your|
 F2 C2 F2 G2 | (A2 B2 A2) G2 | A4 G4 | [EG]6 [EG]2 | F2 A2 G2 E2 | F6 G2 | (A F3) [EG]4 | [FA]8 |] %34
w: thy own crimes af-|fright~ _ _ thy|guil- ty|soul, And|thy own crimes af-|fright thy|guil- * ty|soul."|
w: trem- bling souls, and|no~ _ _ de-|li- verer|near, Your|trem- bling souls and|no de-|li- * verer|near.|
V:3
 F4 A2 c2 | f8- | f4 c4 | A2 F2 B2 A2 | G8 | z4 F4 | A2 c2 f2 c2 | A2 F2 (B4 | A4) G4 | F6 A2 | %10
w: ||||||||||
w: ||||||||||
 G2 G2 G2 A2 | B2 c2 d2 cB | c6 c2 | f4 c4 | d4 d4 | c2 B2 A4 | G8 | F6 z2 | z4 z2 c2 | %19
w: ||||||||Be-|
w: ||||||||Lest,|
 f2 d2 c2 A2 | d4 c4 | B4 A4 | (G2 E2 F2 D2 | C4) z2 f2 | e2 c2 (d2 B2 | c>dcB A2) G2 | %26
w: hold my ter- rors|now: my|thun- ders|roll,~ _ _ _|_ My|thun- ders roll,~ _|_ _ _ _ _ And|
w: like a li- on,|his last|ven- geance|tear~ _ _ _|_ Last|ven- geance tear~ _|_ _ _ _ _ Your|
 F2 G2 A2 B2 | (c2 de f2) e2 | (f2 e2) d4 | c6 B2 | A2 F2 B2 G2 | (ABcd c2) B2 | A4 G4 | F8 |] %34
w: ||||||||
w: ||||||||
V:4
 F,4 F,2 E,2 | F,8- | F,4 E,4 | D,2 D,2 B,,2 B,,2 | C,8- | C,4 F,4 | F,2 F,2 F,2 F,2 | %7
w: |||||||
w: |||||||
 F,2 F,2 B,,4- | B,,4 C,4 | [F,,F,]6 [F,,F,]2 | C,2 C,2 C,2 F,2 | B,2 A,2 G,2 G,,2 | C,6 F,2 | %13
w: ||||||
w: ||||||
 F,4 A,4 | G,4 G,4 | A,2 B,2 C4 | C,8 | F,6 F,2 | C2 B,2 A,2 G,2 | [D,B,]4 A,4 | [D,B,]4 A,4 | %21
w: ||||* Be-|hold my ter- rors|now: my|thun- ders|
w: ||||* Lest,|like a li- on,|his last|ven- geance|
 (G,2 E,2 F,2 D,2 | C,4) z2 F,2 | E,2 C,2 (D,2 B,,2 | C,4 B,,4 | A,,2 F,,2 A,,B,,) C,2 | %26
w: roll,~ _ _ _|_ My|thun- ders roll~ _|_ _|* * * * And|
w: tear~ _ _ _|_ last|ven- geance tear~ _|_ _|* * * * Your|
 F,2 E,2 F,2 B,2 | (A,2 G,2 F,2) C,2 | F,4 G,4 | C,6 C,2 | F,2 D,2 B,,2 C,2 | (F,2 G,2 A,2) B,2 | %32
w: ||||||
w: ||||||
 C4 C,4 | [F,,F,]8 |] %34
w: ||
w: ||

